X:28
T:Rickets' Hornpipe
M:12/8
L:1/8
S:Arrangement Dr. Gary Smith
R:hornpipe
K:D
gfe | d2cd2Af2Ad2f | efe dcB A3f2g | agf e2d b_ba g2f |
efe dcBA3gfe | d2cd2Af2Ad2f | efe dcB A3f2g |
agfe2d b_bag2c | dd'a efed3 :: f2g | a2ba2fd2D/2d/2g2a |
b2c'b2ge2E/2e/2f2g | a2ba2g feda2f | gfe dcA a2A/2a/2gfe |
d2cd2Af2Ad2f | efe dcBA3f2g |
agfe2d b_bag2c | dd'a efed3 :|
